data/icons/hicolor/scalable/apps/dev.lynith.Speedtest.svg

<?xml version="1.0" encoding="UTF-8"?>
<svg height="128px" viewBox="0 0 128 128" width="128px" xmlns="http://www.w3.org/2000/svg" xmlns:xlink="http://www.w3.org/1999/xlink">
    <clipPath id="a">
        <path d="m 44 35 h 36 v 11 h -36 z m 0 0"/>
    </clipPath>
    <clipPath id="b">
        <path d="m 63.605469 13 h 0.789062 c 27.394531 0 49.605469 22.210938 49.605469 49.605469 c 0 27.398437 -22.210938 49.605469 -49.605469 49.605469 h -0.789062 c -27.394531 0 -49.605469 -22.207032 -49.605469 -49.605469 c 0 -27.394531 22.210938 -49.605469 49.605469 -49.605469 z m 0 0"/>
    </clipPath>
    <clipPath id="c">
        <path d="m 35 43 h 10 v 21 h -10 z m 0 0"/>
    </clipPath>
    <clipPath id="d">
        <path d="m 63.605469 13 h 0.789062 c 27.394531 0 49.605469 22.210938 49.605469 49.605469 c 0 27.398437 -22.210938 49.605469 -49.605469 49.605469 h -0.789062 c -27.394531 0 -49.605469 -22.207032 -49.605469 -49.605469 c 0 -27.394531 22.210938 -49.605469 49.605469 -49.605469 z m 0 0"/>
    </clipPath>
    <clipPath id="e">
        <path d="m 83 43 h 10 v 21 h -10 z m 0 0"/>
    </clipPath>
    <clipPath id="f">
        <path d="m 63.605469 13 h 0.789062 c 27.394531 0 49.605469 22.210938 49.605469 49.605469 c 0 27.398437 -22.210938 49.605469 -49.605469 49.605469 h -0.789062 c -27.394531 0 -49.605469 -22.207032 -49.605469 -49.605469 c 0 -27.394531 22.210938 -49.605469 49.605469 -49.605469 z m 0 0"/>
    </clipPath>
    <clipPath id="g">
        <path d="m 23 76 h 18 v 11 h -18 z m 0 0"/>
    </clipPath>
    <clipPath id="h">
        <path d="m 63.605469 13 h 0.789062 c 27.394531 0 49.605469 22.210938 49.605469 49.605469 c 0 27.398437 -22.210938 49.605469 -49.605469 49.605469 h -0.789062 c -27.394531 0 -49.605469 -22.207032 -49.605469 -49.605469 c 0 -27.394531 22.210938 -49.605469 49.605469 -49.605469 z m 0 0"/>
    </clipPath>
    <clipPath id="i">
        <path d="m 87 76 h 18 v 11 h -18 z m 0 0"/>
    </clipPath>
    <clipPath id="j">
        <path d="m 63.605469 13 h 0.789062 c 27.394531 0 49.605469 22.210938 49.605469 49.605469 c 0 27.398437 -22.210938 49.605469 -49.605469 49.605469 h -0.789062 c -27.394531 0 -49.605469 -22.207032 -49.605469 -49.605469 c 0 -27.394531 22.210938 -49.605469 49.605469 -49.605469 z m 0 0"/>
    </clipPath>
    <clipPath id="k">
        <path d="m 28 13 h 72 v 31 h -72 z m 0 0"/>
    </clipPath>
    <clipPath id="l">
        <path d="m 63.605469 13 h 0.789062 c 27.394531 0 49.605469 22.210938 49.605469 49.605469 c 0 27.398437 -22.210938 49.605469 -49.605469 49.605469 h -0.789062 c -27.394531 0 -49.605469 -22.207032 -49.605469 -49.605469 c 0 -27.394531 22.210938 -49.605469 49.605469 -49.605469 z m 0 0"/>
    </clipPath>
    <clipPath id="m">
        <path d="m 83 27 h 31 v 61 h -31 z m 0 0"/>
    </clipPath>
    <clipPath id="n">
        <path d="m 63.605469 13 h 0.789062 c 27.394531 0 49.605469 22.210938 49.605469 49.605469 c 0 27.398437 -22.210938 49.605469 -49.605469 49.605469 h -0.789062 c -27.394531 0 -49.605469 -22.207032 -49.605469 -49.605469 c 0 -27.394531 22.210938 -49.605469 49.605469 -49.605469 z m 0 0"/>
    </clipPath>
    <clipPath id="o">
        <path d="m 14 27 h 31 v 61 h -31 z m 0 0"/>
    </clipPath>
    <clipPath id="p">
        <path d="m 63.605469 13 h 0.789062 c 27.394531 0 49.605469 22.210938 49.605469 49.605469 c 0 27.398437 -22.210938 49.605469 -49.605469 49.605469 h -0.789062 c -27.394531 0 -49.605469 -22.207032 -49.605469 -49.605469 c 0 -27.394531 22.210938 -49.605469 49.605469 -49.605469 z m 0 0"/>
    </clipPath>
    <radialGradient id="q" cx="0" cy="0" gradientTransform="matrix(0 42.5 -42.947399 0 64 46)" gradientUnits="userSpaceOnUse" r="1">
        <stop offset="0" stop-color="#5e5c64"/>
        <stop offset="0.651042" stop-color="#5e5c64" stop-opacity="0.329412"/>
        <stop offset="1" stop-color="#5e5c64" stop-opacity="0"/>
    </radialGradient>
    <path d="m 114 66.238281 c 0 26.085938 -22.386719 47.234375 -50 47.234375 s -50 -21.148437 -50 -47.234375 c 0 -26.089843 22.386719 -47.238281 50 -47.238281 s 50 21.148438 50 47.238281 z m 0 0" fill="#c0bfbc"/>
    <path d="m 114 62.605469 c 0 27.398437 -22.386719 49.605469 -50 49.605469 s -50 -22.207032 -50 -49.605469 c 0 -27.394531 22.386719 -49.605469 50 -49.605469 s 50 22.210938 50 49.605469 z m 0 0" fill="#deddda"/>
    <g clip-path="url(#a)">
        <g clip-path="url(#b)">
            <path d="m 44.546875 43.300781 c 8.441406 -8.195312 18.171875 -7.980469 19.453125 -7.980469 c 9.121094 0 14.984375 4.414063 15.980469 5.105469 l -1.277344 1.144531 c -4.347656 -2.773437 -9.257813 -4.253906 -14.703125 -4.253906 c -3.847656 0 -12.054688 0.78125 -19.453125 8 z m 0 0" fill="#e66100"/>
        </g>
    </g>
    <g clip-path="url(#c)">
        <g clip-path="url(#d)">
            <path d="m 35.429688 52.421875 l 9.117187 -9.117187 v 2.011718 c -0.289063 0.496094 -7.273437 6.148438 -8.027344 18.304688 z m 0 0" fill="#a8122d"/>
        </g>
    </g>
    <g clip-path="url(#e)">
        <g clip-path="url(#f)">
            <path d="m 92.566406 52.414062 l -9.117187 -9.121093 v 2.015625 c 0.289062 0.496094 7.273437 6.148437 8.027343 18.304687 z m 0 0" fill="#26a269"/>
        </g>
    </g>
    <g clip-path="url(#g)">
        <g clip-path="url(#h)">
            <path d="m 23.949219 85.546875 l 16.230469 -9.304687 v 2.015624 l -15.246094 8.71875 z m 0 0" fill="#a8122d"/>
        </g>
    </g>
    <g clip-path="url(#i)">
        <g clip-path="url(#j)">
            <path d="m 104.046875 85.539062 l -16.230469 -9.304687 v 2.015625 l 15.246094 8.71875 z m 0 0" fill="#26a269"/>
        </g>
    </g>
    <g clip-path="url(#k)">
        <g clip-path="url(#l)">
            <path d="m 28.644531 27.53125 c 4.644531 -4.609375 10.15625 -8.261719 16.222657 -10.753906 c 6.066406 -2.496094 12.566406 -3.777344 19.132812 -3.777344 s 13.066406 1.28125 19.132812 3.777344 c 6.066407 2.492187 11.578126 6.144531 16.222657 10.753906 l -15.910157 15.78125 c -2.554687 -2.53125 -5.585937 -4.542969 -8.921874 -5.914062 c -3.335938 -1.371094 -6.910157 -2.074219 -10.523438 -2.074219 c -3.609375 0 -7.1875 0.703125 -10.523438 2.074219 c -3.335937 1.371093 -6.367187 3.382812 -8.921874 5.914062 z m 0 0" fill="#ffb21d"/>
        </g>
    </g>
    <g clip-path="url(#m)">
        <g clip-path="url(#n)">
            <path d="m 99.355469 27.53125 c 7.78125 7.71875 12.78125 17.773438 14.214843 28.601562 c 1.4375 10.824219 -0.765624 21.820313 -6.269531 31.277344 l -19.484375 -11.164062 c 3.027344 -5.199219 4.238282 -11.246094 3.449219 -17.199219 c -0.792969 -5.957031 -3.539063 -11.484375 -7.820313 -15.734375 z m 0 0" fill="#26c383"/>
        </g>
    </g>
    <g clip-path="url(#o)">
        <g clip-path="url(#p)">
            <path d="m 20.699219 87.410156 c -5.503907 -9.457031 -7.707031 -20.453125 -6.269531 -31.277344 c 1.433593 -10.828124 6.433593 -20.882812 14.214843 -28.601562 l 15.910157 15.78125 c -4.28125 4.25 -7.027344 9.777344 -7.820313 15.734375 c -0.789063 5.953125 0.421875 12 3.449219 17.199219 z m 0 0" fill="#e1182d"/>
        </g>
    </g>
    <path d="m 112 62.605469 c 0 26.277343 -21.476562 47.609375 -48 47.609375 s -48 -21.332032 -48 -47.609375 c 0 -26.277344 21.476562 -47.605469 48 -47.605469 s 48 21.328125 48 47.605469 z m 0 0" fill="none" stroke="#5e5c64" stroke-width="4"/>
    <path d="m 110.5 62.5 c 0 25.390625 -20.804688 46 -46.5 46 s -46.5 -20.609375 -46.5 -46 s 20.804688 -46 46.5 -46 s 46.5 20.609375 46.5 46 z m 0 0" fill="none" stroke="url(#q)" stroke-width="3"/>
    <path d="m 95.082031 31.59375 h -1.175781 v 1.117188 c -0.1875 0.015624 -0.378906 0.082031 -0.566406 0.210937 l -34.726563 24.292969 c -0.0625 0.042968 -0.117187 0.09375 -0.167969 0.148437 c -0.820312 0.875 -1.464843 1.902344 -1.898437 3.019531 c -0.445313 1.152344 -0.660156 2.378907 -0.628906 3.613282 c 0.035156 1.234375 0.3125 2.449218 0.816406 3.574218 c 0.507813 1.128907 1.230469 2.144532 2.132813 2.996094 c 0.902343 0.847656 1.964843 1.515625 3.125 1.957032 c 1.160156 0.441406 2.398437 0.652343 3.644531 0.621093 c 1.242187 -0.03125 2.46875 -0.308593 3.601562 -0.808593 c 1.105469 -0.488282 2.152344 -1.238282 2.992188 -2.097657 l 22.730469 -35.789062 c 0.140624 -0.222657 0.195312 -0.449219 0.183593 -0.664063 v -1.984375 z m 0 0" fill="#1c71d8"/>
    <path d="m 61.992188 70.523438 c -1.160157 -0.441407 -2.222657 -1.109376 -3.125 -1.957032 c -0.902344 -0.851562 -1.625 -1.867187 -2.132813 -2.996094 c -0.503906 -1.125 -0.78125 -2.339843 -0.816406 -3.574218 c -0.03125 -1.234375 0.183593 -2.460938 0.628906 -3.613282 c 0.433594 -1.117187 1.078125 -2.144531 1.898437 -3.019531 c 0.050782 -0.054687 0.105469 -0.105469 0.167969 -0.148437 l 34.726563 -24.292969 c 1.019531 -0.710937 2.285156 0.480469 1.621094 1.527344 l -22.730469 35.789062 c -0.839844 0.859375 -1.886719 1.609375 -2.992188 2.097657 c -1.132812 0.5 -2.359375 0.777343 -3.601562 0.808593 c -1.246094 0.03125 -2.484375 -0.179687 -3.644531 -0.621093 z m 0 0" fill="#62a0ea"/>
</svg>

<svg width="128" height="128" viewBox="0 0 128 128" fill="none" xmlns="http://www.w3.org/2000/svg">
<ellipse cx="64" cy="67.3118" rx="57.2235" ry="55.2107" fill="#C0BFBC"/>
<ellipse cx="64" cy="62.6063" rx="50" ry="49.6063" fill="#DEDDDA"/>
<g clip-path="url(#clip0_37_101)">
<path d="M44.5471 43.3025C52.9874 35.1038 62.7205 35.3203 64 35.3204C73.1192 35.3204 78.9844 39.7326 79.9805 40.4258L78.7028 41.5716C74.3552 38.7982 69.4455 37.3164 64 37.3164C60.1507 37.3164 51.9472 38.0975 44.5471 45.3155V43.3025Z" fill="#E66100"/>
<path d="M35.4292 52.4232L44.5462 43.303V45.3156C44.2578 45.8125 37.2738 51.4665 36.5196 63.6211L35.4292 52.4232Z" fill="#A8122D"/>
<path d="M92.5679 52.4147L83.4509 43.2945V45.307C83.7393 45.804 90.7233 51.458 91.4776 63.6125L92.5679 52.4147Z" fill="#26A269"/>
<path d="M20.6511 87.2902L40.1814 76.244V78.2578L21.6349 88.7214L20.6511 87.2902Z" fill="#A8122D"/>
<path d="M107.272 87.4205L87.8158 76.2355V78.2493L106.288 88.8517L107.272 87.4205Z" fill="#26A269"/>
<path d="M28.6447 27.5293C33.2876 22.923 38.7996 19.269 44.8658 16.7761C50.9321 14.2831 57.4339 13 64 13C70.5661 13 77.0679 14.2831 83.1342 16.7761C89.2005 19.269 94.7124 22.923 99.3554 27.5294L83.4454 43.314C80.8918 40.7805 77.8603 38.7708 74.5238 37.3997C71.1873 36.0285 67.6114 35.3228 64 35.3228C60.3887 35.3228 56.8127 36.0285 53.4762 37.3997C50.1398 38.7708 47.1082 40.7805 44.5546 43.314L28.6447 27.5293Z" fill="#FFB21D"/>
<path d="M99.3554 27.5294C107.138 35.251 112.136 45.3048 113.572 56.1314C115.009 66.958 112.805 77.9524 107.301 87.4095L87.8157 76.248C90.8425 71.0467 92.0549 64.9997 91.2647 59.0451C90.4746 53.0905 87.726 47.5609 83.4454 43.314L99.3554 27.5294Z" fill="#26C383"/>
<path d="M20.6987 87.4095C15.1954 77.9524 12.9911 66.958 14.4278 56.1314C15.8644 45.3048 20.8617 35.251 28.6447 27.5294L44.5546 43.314C40.274 47.5609 37.5254 53.0905 36.7353 59.0451C35.9451 64.9997 37.1575 71.0467 40.1843 76.248L20.6987 87.4095Z" fill="#E1182D"/>
</g>
<path fill-rule="evenodd" clip-rule="evenodd" d="M64 13.291C36.5034 13.291 14.2636 35.3981 14.2636 62.6063C14.2636 89.8145 36.5034 111.922 64 111.922C91.4966 111.922 113.736 89.8145 113.736 62.6063C113.736 35.3981 91.4966 13.291 64 13.291ZM6.77643 62.6063C6.77643 31.2073 32.4243 5.80383 64 5.80383C95.5758 5.80383 121.224 31.2073 121.224 62.6063C121.224 94.0053 95.5758 119.409 64 119.409C32.4243 119.409 6.77643 94.0053 6.77643 62.6063Z" fill="#5E5C64"/>
<path fill-rule="evenodd" clip-rule="evenodd" d="M64 15.8097C37.8928 15.8097 16.7851 36.7446 16.7851 62.5C16.7851 88.2553 37.8928 109.19 64 109.19C90.1072 109.19 111.215 88.2553 111.215 62.5C111.215 36.7446 90.1072 15.8097 64 15.8097ZM10.4897 62.5C10.4897 33.2058 34.4783 9.51434 64 9.51434C93.5217 9.51434 117.51 33.2058 117.51 62.5C117.51 91.7941 93.5217 115.486 64 115.486C34.4783 115.486 10.4897 91.7941 10.4897 62.5Z" fill="url(#paint0_radial_37_101)"/>
<path d="M95.0821 31.5944H93.9068V32.7105C93.7188 32.7266 93.526 32.7932 93.3414 32.9223L58.6138 57.2161C58.5526 57.2589 58.4957 57.3074 58.4448 57.3619C57.6244 58.239 56.9803 59.2637 56.5472 60.3811C56.1007 61.5333 55.8874 62.7614 55.9196 63.9952C55.9518 65.229 56.2287 66.4443 56.7347 67.5716C57.2406 68.699 57.9656 69.7162 58.8682 70.5652C59.7698 71.4152 60.8315 72.0805 61.9926 72.523C63.1537 72.9655 64.3915 73.1766 65.6351 73.1442C66.8787 73.1118 68.1037 72.8365 69.2402 72.3341C70.3424 71.8468 71.3903 71.0967 72.2305 70.2383L94.9623 34.4487C95.1027 34.2275 95.1568 33.9997 95.1452 33.7847V31.8008L95.0821 31.5944Z" fill="#1C71D8"/>
<path d="M61.9926 70.523C60.8315 70.0805 59.7698 69.4152 58.8682 68.5652C57.9656 67.7162 57.2406 66.699 56.7347 65.5716C56.2287 64.4443 55.9518 63.229 55.9196 61.9952C55.8874 60.7614 56.1007 59.5333 56.5472 58.3811C56.9802 57.2637 57.6244 56.239 58.4447 55.3619C58.4957 55.3074 58.5526 55.2589 58.6138 55.2161L93.3414 30.9223C94.3598 30.2099 95.6263 31.4026 94.9623 32.4487L72.2305 68.2383C71.3903 69.0967 70.3424 69.8468 69.2402 70.3341C68.1037 70.8365 66.8786 71.1118 65.635 71.1442C64.3914 71.1766 63.1537 70.9655 61.9926 70.523Z" fill="#62A0EA"/>
<defs>
<radialGradient id="paint0_radial_37_101" cx="0" cy="0" r="1" gradientUnits="userSpaceOnUse" gradientTransform="translate(64 45.1878) rotate(90) scale(44.5919 45.0613)">
<stop stop-color="#5E5C64"/>
<stop offset="0.651042" stop-color="#5E5C64" stop-opacity="0.33"/>
<stop offset="1" stop-color="#5E5C64" stop-opacity="0"/>
</radialGradient>
<clipPath id="clip0_37_101">
<rect x="14" y="13" width="100" height="99.2126" rx="49.6063" fill="white"/>
</clipPath>
</defs>
</svg>
